X: 40333
T: Tom Burns' Polka
R: barndance
M: 4/4
K: Gmajor
|:DD D2 d2 B2|DD D2 d2 B2|DD D2 d2 B2|G2 F6|DD D2 d2 c2|DD D2 d2 c2|DD D2 d2 c2|F2 G6:|
K:D
|:A2 FA d2 f2|a2 a2 a2 ^ga|b2 a2 f2 d2|dc c4|A2 ^GA c2 e2|a2 a2 a2 ^ga|b2 a2 e2_f2|f6 z|
A2 FA d2 f2|a2 a2 a2 ^ga|b2 a2 f2 d2|dc c4|A2 ^GA c2 e2|a2 a2 a2 ^ga|b2 a2 g2 c2|d6 d2:|
K:G
|:DD D2 d2 B2|DD D2 d2 B2|DD D2 d2 B2|G2 F6|DD D2 d2 c2|DD D2 d2 c2|DD D2 d2 c2|F2 G6:|
K:C
|:E4 G4|c4 e4|gggg g2 e2|f2 B2 B4|F4 G4|B4 d4|ffff f2 B2|c2e2 g4|
E4 G4|c4 e4|gggg g2 e2|f2 B2 B4|F4 G4|B4 d2 gg|g2 ba gfed|c2 c2 c4:|
K:G
DD D2 d2 B2|DD D2 d2 B2|DD D2 d2 B2|G2 F6|DD D2 d2 c2|DD D2 d2 c2|DD D2 d2 c2|F2 G6|
DD D2 d2 B2|DD D2 d2 B2|DD D2 d2 B2|G2 F6|DD D2 d2 c2|DD D2 d2 c2|FGAB cdef|g6 g2||

